!!!COM: Bach, Johann Sebastian
!!!CDT: 1685/3//-1750/7/28/
!!!OTL@@DE: Liebster Jesu, wir sind hier
!!!AGN: 4-Part Chorale
!!!SCT: BH 328
!!!SCT: BWV 373
**harm	**root	**kern	**kern	**kern	**kern
!	!	!bass	!tenor	!alto	!soprno
*	*Iorgan	*Iorgan	*Iorgan	*Iorgan	*Iorgan
*M4/4	*M4/4	*M4/4	*M4/4	*M4/4	*M4/4
*met(c)	*met(c)	*met(c)	*met(c)	*met(c)	*met(c)
*MM60	*MM60	*MM60	*MM60	*MM60	*MM60
*k[f#c#g#d#a#e#]	*k[f#c#g#d#a#e#]	*k[f#c#g#d#a#e#]	*k[f#c#g#d#a#e#]	*k[f#c#g#d#a#e#]	*k[f#c#g#d#a#e#]
*F#:	*F#:	*F#:	*F#:	*F#:	*F#:
*>[A,A,B]	*>[A,A,B]	*>[A,A,B]	*>[A,A,B]	*>[A,A,B]	*>[A,A,B]
*>A	*>A	*>A	*>A	*>A	*>A
=1-	=1-	=1-	=1-	=1-	=1-
I	4GG	4FF#	8F#	4c#	4a#
.	.	.	8G#	.	.
I	4GG	[4F#	4A#	4c#	8g#
.	.	.	.	.	8f#
Vb	4DD	8F#]	4G#	4c#	4g#
.	.	8E#	.	.	.
V	4DD	8D#	4G#	4e#	4cc#
.	.	8C#	.	.	.
=2	=2	=2	=2	=2	=2
I	4GG	8F#	8A#	4c#	4a#
.	.	8G#	8B	.	.
Ib	4GG	8A#	4c#	8c#	4f#
.	.	8F#	.	8d#	.
V;	2DD;	2C#;	2c#;	2e#;	2g#;
=3	=3	=3	=3	=3	=3
vi	4EE	8DD#	4A#	4d#	4f#
.	.	4D#	.	.	.
V7c/IV	4GG	.	4A#	4e	4f#
.	.	8C#	.	.	.
IV	4CC	8BBB	4B	4d#	4f#
.	.	4BB	.	.	.
Ib	4GG	.	4F#	4c#	4f#
.	.	8AA#	.	.	.
=4	=4	=4	=4	=4	=4
ii	4AA	4GG#	4B	8d#	4g#
.	.	.	.	8e#y	.
I	4GG	8FF#	4c#	4f#	4a#
.	.	8AA#	.	.	.
ii7b	4AA	8BB	8d#	4f#	2g#
.	.	8GG#	8B	.	.
V	4DD	4C#	8G#	4e#	.
.	.	.	16c#	.	.
.	.	.	16B	.	.
=5	=5	=5	=5	=5	=5
I;	1GG;	1FF#;	1A#;	1c#;	1f#;
*>B	*>B	*>B	*>B	*>B	*>B
!!linebreak: 2
=6:|!	=6:|!	=6:|!	=6:|!	=6:|!	=6:|!
I	4GG	8FF#	4F#	4A#	4c#
.	.	4F#	.	.	.
Vb	4DD	.	4G#	4G#	4c#
.	.	8E#	.	.	.
viiob/V	4CC#	4D#	4F#	8A#	4d#
.	.	.	.	8B#	.
V	4DD	[4C#	4G#	4c#	4e#
=7	=7	=7	=7	=7	=7
vi7d	4EE	4C#]	4A#	4d#	4f#
Vb/V	4AA	4BB#	4G#	4d#	8g#
.	.	.	.	.	8f#
V	4DD	4C#	8G#	4c#	8e#
.	.	.	8F#	.	8d#
V;	4DD;	4C#;	4E#;	4G#;	4c#;
=8	=8	=8	=8	=8	=8
Ib	4GG	8AA#	4.F#	8c#	4f#
.	.	8FF#	.	8A#	.
ii7	8AA	8GG#	.	8B	4f#
V7b/IV	8GG	8AA#	8E	8c#	.
IV	4CC	8BB	8D#	4d#	4f#
.	.	8C#	8E#	.	.
IV	4CC	8BB	8F#	4d#	4f#
.	.	8AA#	16G#	.	.
.	.	.	16A#	.	.
=9	=9	=9	=9	=9	=9
ii	4AA	4GG#	4B	8d#	4g#
.	.	.	.	8e#	.
I	4GG	4FF#	4c#	[4f#	4a#
V	2DD	2C#	4.c#	8f#]	2g#
.	.	.	.	8d#	.
.	.	.	.	4e#	.
.	.	.	8B	.	.
=10	=10	=10	=10	=10	=10
I;	1GG;	1FF#;	1A#;	1c#;	1f#;
==	==	==	==	==	==
*-	*-	*-	*-	*-	*-
!!chor2scor: -l 2 -s 0.6 -o %b.pmx
!!!YEC: Copyright 1994, David Huron
!!!YEC: Changes/Additions 2001 by Craig Stuart Sapp
!!!YEN: United States of America
!!!SMA: 371 Bach Chorales, edited by Ludwig Erk, C.F. Peters
!!!PDT: 1850, 1865
!!!ONB: Harmony and Root analysis done manually
